X:1
T:MARCHE MILITAIRE
T:MARCHE MILITAIRE
T:PAR
T: J. MOUILLÉ. 
T: A Sa Majesté ALPHONSO XII Roi d'Espagne. 
T:J. I. 209.
T:J. I. 209.
T:J. I. 209.
T:J. I. 209.
Z:J. I. 209.
%%score { 1 | ( 2 3 ) }
L:1/8
Q:1/4=140
M:4/4
K:C
V:1 treble nm="Piano" snm="Pno."
V:2 bass 
V:3 bass 
V:1
!ff! x8 | D z [Fcd]>[Fcd] [Fcd]2 [^Fcd]2 | [GBd] z/ x4 x/ x2 | D z [Fcd]>[Fcd] [Fcd]2 [^Fcd]2 | %4
 [GBg]2- [GBg]>G- G2- G>[I:staff +1]!fermata!G, |!f![I:staff -1] x8 || G4- G>EG>c | e4- e>gc>e | %8
 d4- d>fB>d | c>Ge>c g>ec>e | G4- G>EG>c | e4- e>gc>e | ^f4- f>da>f | g>dB>d G2 z2 | %14
!ff! G4- G>EG>c | e4- e>gc>e | d4- d>fB>d | c>Ge>c g>ec>e | G4- G>EG>c | e4- e>gc>e | g4- g>fd>e | %21
 c>GE>G C2 z2 |!mf! [Bd]>[^A^c][Bd]>[=ce] [Bd]2!f! !^![FG]2 | %23
!mf! [Ec]>[^DB][Ec]>[F=d] [Ec]2!f! !^![CE]2 | [DF]>[^CE][DF]>[EG] [FA]>[EG][FA]>[DB] | %25
 [Ec]>[^DB][Ec]>[F=d] [Ge]2 [Ec] z |!mf! [Bd]>[^A^c][Bd]>[=ce] [Bd]2!f! !^![FG]2 | %27
!mf! [Ec]>[^DB][Ec]>[F=d] [Ec]2 !^![CE]>[B,D] | [A,C]>[^G,B,][A,C]>[B,D] [CE]>[B,D][CE]>[A,^F] | %29
 [B,G]>[A,^F][B,G]>[CA] [DB]2 [B,G] z |!mf! [Bd]>[^A^c][Bd]>[=ce] [Bd]2!f! !^![FG]2 | %31
!mf! [Ec]>[^DB][Ec]>[F=d] [Ec]2!f! !^![CE]2 | [DF]>[^CE][DF]>[EG] [FA]>[EG][FA]>[DB] | %33
 [Ec]>[^DB][Ec]>[F=d] [Ge]2 [Ec] z |!mf! [df]>[^c=e][df]>[eg] [df]2!f! !^![Bd]2 | %35
!mf! [Ge]>[^F^d][Ge]>[A=f] [Ge]2!f! !^![Ec]2 | [Bd]>[^A^c][Bd]>[=ce] [df]>[^ce][df]>[eg] | %37
 [fa]>[eg][fa]>[db] [ec']2 z2 |:[K:F][K:bass]!mf! F,7/2 C,/ A,>F,D>=B, | C2- C>A, F,2 z2 | %40
 G,7/2 E,/ B,>G,E>^C | D2- D>B, G,>B,D,>E, |!mf! F,7/2 C,/ A,>F,D>=B, | C2- C>A, F,>A,F>E | %44
[K:treble] D2- D/^C/D/E/ F/E/F/G/ A/G/A/=B/ ||1 c>GE>G C>B,A,>G, :|2 c>GE>G C>BA>F |: %47
 A7/2 F/ c>Af>^c | d2- d>B F2 z2 | =B7/2 G/ d>Bg>^d | e2- e>c G2 z2 | e7/2 c/ g>ed'>c' | %52
 c'2 [ff']2- [ff']>[Aa][Bb]>[cc'] | [_d_d']>[^F^f][Gg]>[Aa] [Bb]3/2 [Cc]<[=D=d][Ee]/ |1 %54
 [Ff]4 [Acf]3/2 E<FG/ :|2 [Ff]4 [Acf]2 z2 ||[K:C]!mf! G4- G>EG>c | e4- e>gc>e | d4- d>fB>d | %59
 c>Ge>c g>ec>e | G4- G>EG>c | e4- e>gc>e | ^f4- f>da>f | g>dB>d G2 z2 |!ff! G4- G>EG>c | %65
 e4- e>gc>e | d4- d>fB>d | c>Ge>c g>ec>e | G4- G>EG>c | e4- e>gc>e | g4- g>fd>e | %71
!f! c[Ec]/[Ec]/ [Ec][Ec] [Ec]GEG | [EGce][EGce]/[EGce]/ [EGce][EGce] [EGce]Gce | gecg fdBg | %74
 egec [GBd] z z2 | [Ec][Ec]/[Ec]/ [Ec][Ec] [Ec]GEG | [EGce][EGce]/[EGce]/ [EGce][EGce] [EGce]Gce | %77
 gecg fdAf | dBGd cc!mf!ec |!<(! GG/A/B/c/d/e/!<)!!<(! f/e/d/e/f/g/a/b/!<)! | c'geg ccec | %81
!<(! GG/A/B/c/d/e/!<)!!<(! f/e/d/e/f/g/a/b/!<)! | %82
!f! c' [Ac_e]/[Ace]/ [Ace][Ace] [Gcd][Gcd] [GBg][GBg] | %83
 [EGce] [Ac_e]/[Ace]/ [Ace][Ace] [Gcd][Gcd] [GBg][GBg] | %84
!ff! [EGc]2 [EGc]>[EGc] [Gce]>[Gce] [ceg]>[ceg] | [cegc'] z [EGc]4 [EGc]2 | !fermata![EGc]8 |] %87
V:2
 G,>^F,G,>A, B,>A,B,>C | D, z [_A,CD]>[A,CD] [A,CD]2 [=A,CD]2 | [G,B,D] z/ ^F,<G,A,/ B,>A,B,>C | %3
 D, z [_A,CD]>[A,CD] [A,CD]2 [=A,CD]2 | [G,B,D]2- [G,B,D]>G,- G,2- G,>G,, | !fermata![G,,G,]8 || %6
"^Marcia," [C,,C,]2 [E,G,C]>[E,G,C] [E,G,C]2 [G,,,G,,]2 | %7
 [C,,C,]2 [E,G,C]>[E,G,C] [E,G,C]2 [E,,,E,,]2 | [G,,,G,,]2 [G,B,D]>[G,^A,^C] [G,B,D]2 [F,_A,D]2 | %9
 [E,G,E]2 [C,C]2 [G,,G,]2 [E,,E,]2 | [C,,C,]2 [E,G,C]>[E,G,C] [E,G,C]2 [G,,,G,,]2 | %11
 [C,,C,]2 [E,G,C]>[E,G,C] [E,G,C]2 [A,,,A,,]2 | [D,,D,]2 [^F,A,D]>[F,A,D] [F,A,D]2 [D,A,C]2 | %13
 [G,B,]2 [G,,D,G,]2 [G,,G,]>[=F,,=F,][E,,E,]>[D,,D,] | %14
 [C,,C,]2 [E,G,C]>[E,G,C] [E,G,C]2 [G,,,G,,]2 | [C,,C,]2 [E,G,C]>[E,G,C] [E,G,C]2 [E,,,E,,]2 | %16
 [G,,,G,,]2 [G,B,D]>[G,^A,^C] [G,B,D]2 [F,_A,D]2 | [E,G,E]2 [C,C]2 [G,,G,]2 [E,,E,]2 | %18
 [C,,C,]2 [E,G,C]>[E,G,C] [E,G,C]2 [G,,,G,,]2 | [C,,C,]2 [E,G,C]>[E,G,C] [E,G,C]2 [A,,,A,,]2 | %20
 [G,,,G,,]2 [G,^A,^C]>[G,A,C] [G,B,D]2 [G,,B,,G,]2 | [C,E,]2 [C,E,G,]2 [C,,C,]2 z2 | %22
 [G,,G,]2 [G,B,D]2 [G,B,D]2 [G,,D,G,]2 | [C,,C,]2 [C,E,G,]2 [C,E,G,]2 [C,,C,]2 | %24
 [G,,G,]2 [F,G,B,]2 [G,,G,]2 [F,G,B,]2 | [C,,C,]2 [C,E,G,]2 [C,,C,]2 [C,G,C] z | %26
 [G,,G,]2 [G,B,D]2 [G,B,D]2 [G,,D,G,]2 | [C,,C,]2 [C,E,G,]2 [C,E,G,]2 [C,,C,]2 | %28
 [D,,D,]2 [C,D,^F,]2 [D,,D,]2 [C,D,F,]2 | [G,,,G,,]2 [B,,,B,,]2 [G,,,G,,]2 [G,,D,G,] z | %30
 [G,,G,]2 [G,B,D]2 [G,B,D]2 [G,,D,G,]2 | [C,,C,]2 [C,E,G,]2 [C,E,G,]2 [C,,C,]2 | %32
 [G,,G,]2 [F,G,B,]2 [G,,G,]2 [F,G,B,]2 | [C,,C,]2 [C,E,G,]2 [C,,C,]2 [C,G,C] z | %34
 [G,,G,]2 [G,B,D]2 [G,B,D]2 [G,,D,G,]2 | [C,,C,]2 [C,E,G,]2 [C,,C,]2 [C,E,G,]2 | %36
 [G,,G,]2 [G,B,D]2 [G,,G,]2 [G,B,D]2 | [G,,G,]2 [G,,D,F,]2 [C,E,]2 z2 |: %38
[K:F] [F,,,F,,] z[K:treble] [FAc]>[FAc] [FAc]2 [F^G=B]2 | %39
[K:bass] [F,,,F,,] z[K:treble] [FAc]>[FAc] [FAc]2 [F^G=B]2 | %40
[K:bass] [C,,C,] z[K:treble] [GBe]>[GBe] [GBe]2 [GBe]2 | %41
[K:bass] [C,,C,] z[K:treble] [GBe]>[GBe] [GBe]2 [GBc]2 | %42
[K:bass] [F,,,F,,] z[K:treble] [FAc]>[FAc] [FAc]2 [F^G=B]2 | %43
[K:bass] [F,,,F,,] z[K:treble] [FAc]>[FAc] [FAc]2 [Acd]2 | %44
[K:bass] [G,,,G,,] z[K:treble] [=Bdg]2 [Bdg]2 [dfg]2 ||1 %45
[K:bass] [C,,C,] z[K:treble] [egac'] z[K:bass] [C,,C,] z z2 :|2 %46
 [C,,C,] z[K:treble] [egc'] z[K:bass] [C,,C,] z z2 |: %47
 [F,,F,] z [F,A,C]>[F,A,C] [F,A,C]2 [F,A,_E]2 | %48
 [B,,,B,,] z [F,B,D]>[F,B,D] [F,B,D]3/2 [B,,,B,,]<[A,,,A,,][_A,,,_A,,]/ | %49
 [G,,,G,,] z [G,=B,F]>[G,B,F] [G,B,F]2 [G,B,F]2 | %50
 [C,,C,] z [G,CE]>[G,CE] [G,CE]3/2 [F,,F,]<[E,,E,][D,,D,]/ | %51
 [C,,C,]2 [E,G,C]2 [B,,,B,,]2 [E,G,C]2 | [A,,,A,,]2 [A,CF]2 [F,,,F,,]2 [F,A,C]2 | %53
 [B,,,B,,]2 [F,B,_D]2 [C,,C,]2 [G,B,C]2 |1 [F,A,]3/2 [C,,C,]<[A,,,A,,][C,,C,]/ [F,,,F,,]2 z2 :|2 %55
 [F,A,]3/2 [C,,C,]<[A,,,A,,][C,,C,]/ [F,,,F,,]2 z2 || %56
[K:C] [C,,C,]2 [E,G,C]>[E,G,C] [E,G,C]2 [G,,,G,,]2 | [C,,C,]2 [E,G,C]>[E,G,C] [E,G,C]2 [E,,,E,,]2 | %58
 [G,,,G,,]2 [G,B,D]>[G,^A,^C] [G,B,D]2 [F,_A,D]2 | [E,G,E]2 [C,C]2 [G,,G,]2 [E,,E,]2 | %60
 [C,,C,]2 [E,G,C]>[E,G,C] [E,G,C]2 [G,,,G,,]2 | [C,,C,]2 [E,G,C]>[E,G,C] [E,G,C]2 [A,,,A,,]2 | %62
 [D,,D,]2 [^F,A,D]>[F,A,D] [F,A,D]2 [D,A,C]2 | %63
 [G,B,]2 [G,,D,G,]2 [G,,G,]>[=F,,=F,][E,,E,]>[D,,D,] | %64
 [C,,C,]2 [E,G,C]>[E,G,C] [E,G,C]2 [G,,,G,,]2 | [C,,C,]2 [E,G,C]>[E,G,C] [E,G,C]2 [E,,,E,,]2 | %66
 [G,,,G,,]2 [G,B,D]>[G,=A,^C] [G,B,D]2 [F,_A,D]2 | [E,G,E]2 [C,C]2 [G,,G,]2 [E,,E,]2 | %68
 [C,,C,]2 [E,G,C]>[E,G,C] [E,G,C]2 [G,,,G,,]2 | [C,,C,]2 [E,G,C]>[E,G,C] [E,G,C]2 [A,,,A,,]2 | %70
 [G,,,G,,]2 [G,^A,^C]>[G,A,C] [G,B,D]2 [G,,B,,D,F,]2 | %71
 [C,E,][C,G,C]/[C,G,C]/ [C,G,C][C,G,C] [C,G,C]G,E,G, | %72
 [C,G,C][C,G,C]/[C,G,C]/ [C,G,C][C,G,C] [C,G,C]G,CE | [E,G,CE] z [C,E,G,C] z [G,,G,] z [G,B,DG] z | %74
 [G,CE] z [C,E,G,C] z [G,B,] [F,,F,][E,,E,][D,,D,] | %75
 [C,,C,] [C,G,C]/[C,G,C]/ [C,G,C][C,G,C] [C,G,C]G,E,G, | %76
 [C,G,C][C,G,C]/[C,G,C]/ [C,G,C][C,G,C] [C,G,C]G,CE | [E,G,CE] z [C,E,G,C] z [G,,G,] z [F,A,D] z | %78
 [G,,G,] z [G,B,F] z [CE]CEC | G, z z2 [G,B,DF] z [G,,B,,D,F,] z | [C,E,] z z2 z CEC | %81
 G, z z2 [G,B,DF] z [G,,B,,D,F,] z | [C,E,] [^F,,^F,]/[F,,F,]/ [F,,F,][F,,F,] [G,,G,] z [G,,G,]2 | %83
 [C,,C,] [^F,,^F,]/[F,,F,]/ [F,,F,][F,,F,] [G,,G,] z [G,,,G,,]2 | [C,,C,]2 [C,E,G,C]4 [C,E,G,C]2 | %85
 [C,E,G,C] z C,>C, G,,>G,, E,,>E,, | !fermata![C,,C,]8 |] %87
V:3
 G,,>^F,,G,,>A,, B,,>A,,B,,>C, | x8 | x3/2 ^F,,<G,,A,,/ B,,>A,,B,,>C, | x8 | x8 | x8 || x8 | x8 | %8
 x8 | x8 | x8 | x8 | x8 | x8 | x8 | x8 | x8 | x8 | x8 | x8 | x8 | x8 | x8 | x8 | x8 | x8 | x8 | %27
 x8 | x8 | x8 | x8 | x8 | x8 | x8 | x8 | x8 | x8 | x8 |:[K:F] x2[K:treble] x6 | %39
[K:bass] x2[K:treble] x6 |[K:bass] x2[K:treble] x6 |[K:bass] x2[K:treble] x6 | %42
[K:bass] x2[K:treble] x6 |[K:bass] x2[K:treble] x6 |[K:bass] x2[K:treble] x6 ||1 %45
[K:bass] x2[K:treble] x2[K:bass] x4 :|2 x2[K:treble] x2[K:bass] x4 |: x8 | x8 | x8 | x8 | x8 | x8 | %53
 x8 |1 x8 :|2 x8 ||[K:C] x8 | x8 | x8 | x8 | x8 | x8 | x8 | x8 | x8 | x8 | x8 | x8 | x8 | x8 | x8 | %71
 x8 | x8 | x8 | x8 | x8 | x8 | x8 | x8 | x8 | x8 | x8 | x8 | x8 | x8 | x8 | x8 |] %87

